app/webroot/img/share.svg

<svg xmlns="http://www.w3.org/2000/svg" width="512" height="512" viewBox="0 0 512 512"><defs><filter id="a" x="0" y="0" width="1" height="1" color-interpolation-filters="sRGB"><feColorMatrix type="saturate" values="1" result="fbSourceGraphic"/><feColorMatrix in="fbSourceGraphic" values="-1 0 0 0 1 0 -1 0 0 1 0 0 -1 0 1 0 0 0 1 0"/></filter></defs><path d="M134.021 328.384c36.645-159.582 219.143-196.722 219.143-196.722v-49.128l108.836 108.657-108.836 108.66v-49.129c0 .001-141.125-5.873-219.143 77.662zm220.028 20.042v40.028h-263.039v-170.371h57.562c11.502-14.814 24.562-28.487 38.979-41.011h-137.551v252.394h345.059v-121.984l-41.01 40.944z" filter="url(#a)"/></svg>

<?xml version="1.0" encoding="UTF-8" standalone="no"?>
<!-- The icon can be used freely in both personal and commercial projects with no attribution required, but always appreciated. 
You may NOT sub-license, resell, rent, redistribute or otherwise transfer the icon without express written permission from iconmonstr.com -->

<svg
   xmlns:dc="http://purl.org/dc/elements/1.1/"
   xmlns:cc="http://creativecommons.org/ns#"
   xmlns:rdf="http://www.w3.org/1999/02/22-rdf-syntax-ns#"
   xmlns:svg="http://www.w3.org/2000/svg"
   xmlns="http://www.w3.org/2000/svg"
   xmlns:sodipodi="http://sodipodi.sourceforge.net/DTD/sodipodi-0.dtd"
   xmlns:inkscape="http://www.inkscape.org/namespaces/inkscape"
   version="1.1"
   x="0px"
   y="0px"
   width="512px"
   height="512px"
   viewBox="0 0 512 512"
   enable-background="new 0 0 512 512"
   xml:space="preserve"
   id="svg2"
   inkscape:version="0.48.4 r9939"
   sodipodi:docname="iconmonstr-share-4-icon.svg"><metadata
   id="metadata9"><rdf:RDF><cc:Work
       rdf:about=""><dc:format>image/svg+xml</dc:format><dc:type
         rdf:resource="http://purl.org/dc/dcmitype/StillImage" /></cc:Work></rdf:RDF></metadata><defs
   id="defs7"><filter
     id="filter2986"
     inkscape:label="Invert"
     x="0"
     y="0"
     width="1"
     height="1"
     inkscape:menu="Color"
     inkscape:menu-tooltip="Invert colors"
     color-interpolation-filters="sRGB"><feColorMatrix
       id="feColorMatrix2988"
       type="saturate"
       values="1"
       result="fbSourceGraphic" /><feColorMatrix
       id="feColorMatrix2990"
       in="fbSourceGraphic"
       values="-1 0 0 0 1 0 -1 0 0 1 0 0 -1 0 1 0 0 0 1 0 " /></filter></defs><sodipodi:namedview
   pagecolor="#ffffff"
   bordercolor="#666666"
   borderopacity="1"
   objecttolerance="10"
   gridtolerance="10"
   guidetolerance="10"
   inkscape:pageopacity="0"
   inkscape:pageshadow="2"
   inkscape:window-width="1264"
   inkscape:window-height="849"
   id="namedview5"
   showgrid="false"
   inkscape:zoom="0.4609375"
   inkscape:cx="256"
   inkscape:cy="256"
   inkscape:window-x="-8"
   inkscape:window-y="-8"
   inkscape:window-maximized="1"
   inkscape:current-layer="svg2" />
<path
   id="share-4-icon"
   d="M134.021,328.384c36.645-159.582,219.143-196.722,219.143-196.722V82.534L462,191.191l-108.836,108.66  v-49.129C353.164,250.723,212.039,244.849,134.021,328.384z M354.049,348.426v40.028H91.01V218.083h57.562  c11.502-14.814,24.562-28.487,38.979-41.011H50v252.394h345.059V307.482L354.049,348.426z"
   style="filter:url(#filter2986)" />
</svg>
